!!!COM:	la Rue, Pierre de
!!!CDT:	~1452///-1518/11/20
!!!OPR:	Missa Tous les regretz
!!!ONM:	3
!!!OTL:	Credo
!!!AGN:	Mass; Credo
!!!SCT:	Rue1031c
!!!SCA:	Rue1031c
!!!voices-OPR:	4
!!!voices:	4
**kern	**kern	**kern	**kern
*staff4	*staff3	*staff2	*staff1
*Ivox	*Ivox	*Ivox	*Ivox
*I"Bassus	*I"Tenor	*I"Contra	*I"Discantus
*I'B	*I'T	*I'C	*I'D
*>[A,B]	*>[A,B]	*>[A,B]	*>[A,B]
*>A	*>A	*>A	*>A
*clefF4	*clefGv2	*clefGv2	*clefG2
*k[]	*k[]	*k[]	*k[]
*M2/1	*M2/1	*M2/1	*M2/1
*met(C2)	*met(C2)	*met(C2)	*met(C2)
=1-	=1-	=1-	=1-
!!section: Patrem omnipotentem
!!!OMD: Patrem omnipotentem
0r	0r	0d	0r
=2.	=2.	=2.	=2.
0r	0r	1d	0r
.	.	2d\	.
.	.	4c\	.
.	.	4B\	.
=3	=3	=3	=3
0r	0r	2d\	0a
.	.	2.c\	.
.	.	4B\	.
.	.	4A/	.
.	.	4G/	.
=4.	=4.	=4.	=4.
0D	0r	0F	1a
.	.	.	2a/
.	.	.	4g/
.	.	.	4f/
=5	=5	=5	=5
1C	0r	1c	2a/
.	.	.	2g/
1C	.	2G/	4g/
.	.	.	4f/
.	.	[2A/	4e/
.	.	.	4d/
=6.	=6.	=6.	=6.
2AA/	0A	2A/]	0c
2C/	.	4G/	.
.	.	4F/	.
4C/	.	4E/	.
4BB/	.	4D/	.
4AA/	.	2E/	.
4GG/	.	.	.
=7	=7	=7	=7
0FF	1A	2F/	1r
.	.	2A/	.
.	1A	2A/	2r
.	.	2A/	2a/
=8.	=8.	=8.	=8.
2r	1A	1c	2a/
2AA/	.	.	2a/
2AA/	2A/	[1c	[1cc
2AA/	4G/	.	.
.	4F/	.	.
=9	=9	=9	=9
0C	2A/	1c]	1cc]
.	2.G/	.	.
.	.	1G	2cc\
.	4F/	.	.
.	4E/	.	[2cc\
.	4D/	.	.
=10.	=10.	=10.	=10.
2AA/	2C/	1A	2cc\]
2FF/	1F	.	2a/
1GG	.	1G	1b-i
.	2E/	.	.
=11	=11	=11	=11
1FF	0F	1r	0a
2.F\	.	2.c\	.
4F\	.	4B\	.
=12.	=12.	=12.	=12.
2F\	1.c	2A/	1a
1F	.	2G/	.
.	.	1F	2a/
4E\	2c\	.	4g/
4D\	.	.	4f/
=13	=13	=13	=13
0C	2c\	1E	2a/
.	2c\	.	2.g/
.	1c	1G	.
.	.	.	4f/
.	.	.	4e/
.	.	.	4d/
=14.	=14.	=14.	=14.
0r	1c	2A/	2c/
.	.	2F/	1f
.	1B	1G	.
.	.	.	2e/
=15	=15	=15	=15
2r	0A	1F	2f/
2F\	.	.	2c/
2.F\	.	2r	2d/
.	.	2D/	[2f/
4E\	.	.	.
=16.	=16.	=16.	=16.
2D\	0r	2F/	2f/]
2.C/	.	2G/	1e
.	.	2.A/	.
4BB/	.	.	.
2AA/	.	.	2c/
.	.	8G/L	.
.	.	8A/J	.
=17	=17	=17	=17
2GG/	0r	2B\	4d/
.	.	.	4c/
2AA/	.	1A	4B/
.	.	.	4A/
1E	.	.	1B
.	.	2G#i/	.
=18.	=18.	=18.	=18.
2r	0r	1A	0A
2AA/	.	.	.
2D\	.	2r	.
2C/	.	2E/	.
=19	=19	=19	=19
2D\	0r	2A/	1r
2E\	.	2G/	.
2.F\	.	2A/	2r
.	.	2B\	2d/
4E\	.	.	.
=20.	=20.	=20.	=20.
1C	0r	2c\	2e/
.	.	1c	2c/
2r	.	.	2.e/
2C/	.	4B\	.
.	.	4A/	4f/
=21	=21	=21	=21
2E\	0r	1G	2.g/
2F\	.	.	.
.	.	.	4f/
[1G	.	2r	1d
.	.	2G/	.
=22.	=22.	=22.	=22.
2G\]	0r	2B\	2r
4F\	.	2c\	2e/
4E\	.	.	.
2D\	.	2d\	2f/
2E\	.	4c\	2g/
.	.	4B\	.
=23	=23	=23	=23
4F\	0r	2.A/	2a/
4D\	.	.	.
4F\	.	.	4g/
4G\	.	4B\	4f/
2A\	.	4c\	4e/
.	.	4B\	4d/
2AA/	.	4A/	2f/
.	.	4G/	.
=24.	=24.	=24.	=24.
2C/	0r	2A/	2e/
2D\	.	2F/	2.d/
1AA	.	1E	.
.	.	.	4c#i/
.	.	.	2c#i/
=25	=25	=25	=25
[0D	[0A	1D	0d
.	.	2r	.
.	.	2d\	.
=26.	=26.	=26.	=26.
0D]	0A]	1d	1r
.	.	1d	1a
=27	=27	=27	=27
1r	1A	1c	1a
1D	1A	[1d	1a
=28.	=28.	=28.	=28.
1D	1A	2d\]	1a
.	.	4c\	.
.	.	4B\	.
1D	1A	1A	1a
=29	=29	=29	=29
1GG	[0d	1G	2.b\
.	.	.	4a/
1GG	.	2r	2g/
.	.	2G/	[2b\
=30.	=30.	=30.	=30.
2GG/	0d]	2.B\	2b\]
2G\	.	.	4a/
.	.	4c\	4g/
2F\	.	2A/	2a/
[2G\	.	[2B\	2g/
=31	=31	=31	=31
2G\]	0d	2B\]	2.b\
2GG/	.	2G/	.
.	.	.	4cc\
2FF/	.	2A/	2a/
2GG/	.	[2B\	[2g/
=32.	=32.	=32.	=32.
1D	1d	4B\]	4g/]
.	.	4c\	4e/
.	.	2A/	2f/
2GG/	1d	[1G	2g/
[2G\	.	.	[2b\
=33	=33	=33	=33
2G\]	1d	1G]	2b\]
4F\	.	.	4a/
4E\	.	.	4g/
2F\	1d	1d	2a/
2G\	.	.	2b\
=34.	=34.	=34.	=34.
[0C	[0c	[0e	2.cc\
.	.	.	4b\
.	.	.	1g
=35	=35	=35	=35
0C]	0c]	0e]	2r
.	.	.	2cc\
.	.	.	2cc\
.	.	.	2g/
=36.	=36.	=36.	=36.
2r	0r	2r	2.a/
2C/	.	2c\	.
.	.	.	4g/
2C/	.	2c\	1e
2C/	.	2G/	.
=37	=37	=37	=37
1F	0r	2.A/	1r
.	.	4G/	.
1C	.	[1E	2r
.	.	.	2cc\
=38.	=38.	=38.	=38.
2r	0r	1E]	2cc\
2C/	.	.	2g/
2.F\	.	2r	2.a/
.	.	2c\	.
4E\	.	.	4g/
=39	=39	=39	=39
2C/	0r	2c\	2e/
2C/	.	2G/	2e/
2C/	.	2.A/	1e
2C/	.	.	.
.	.	4G/	.
=40.	=40.	=40.	=40.
1C	0r	2E/	2r
.	.	2E/	2e/
[1C	.	2.E/	1g
.	.	4F/	.
=41	=41	=41	=41
0C]	0r	2G/	4g/
.	.	.	4f/
.	.	2.A/	4e/
.	.	.	4d/
.	.	.	2c/
.	.	4B\	.
.	.	[2c\	2e/
=42.	=42.	=42.	=42.
1D	0r	2c\]	2f/
.	.	1B	2d/
1C	.	.	2e/
.	.	[2A/	2c/
=43	=43	=43	=43
0BB	0r	2A/]	1d
.	.	4G#i/	.
.	.	4F#i/	.
.	.	1G#i	1r
=44.	=44.	=44.	=44.
0AA	1r	0A	2r
.	.	.	2e/
.	[1c	.	2.e/
.	.	.	4f/
=45	=45	=45	=45
0r	0c]	0r	2g/
.	.	.	2.a/
.	.	.	4b\
.	.	.	[2cc\
=46.	=46.	=46.	=46.
0r	1d	0r	2cc\]
.	.	.	1b
.	1c	.	.
.	.	.	[2a/
=47	=47	=47	=47
0r	0B	1r	2a/]
.	.	.	4g#i/
.	.	.	4f#i/
.	.	2r	1g#i
.	.	2d\	.
=48.	=48.	=48.	=48.
1r	0A	2c\	0a
.	.	2c\	.
2r	.	1f	.
2D\	.	.	.
=49	=49	=49	=49
2D\	0r	1e	0r
2C/	.	.	.
1F	.	1A	.
=50.	=50.	=50.	=50.
1E	0r	2r	0r
.	.	1e	.
1AA	.	.	.
.	.	4d\	.
.	.	4c\	.
=51	=51	=51	=51
2r	0r	2d\	0r
1E	.	2e\	.
.	.	2c\	.
4D\	.	4B\	.
4C/	.	4A/	.
=52.	=52.	=52.	=52.
2D\	0r	2B\	0r
2E\	.	2c\	.
2C/	.	1A	.
4BB/	.	.	.
4AA/	.	.	.
=53	=53	=53	=53
2BB/	0r	2G/	0r
2C/	.	1A	.
2AA/	.	.	.
[2D\	.	4G/	.
.	.	4F/	.
=54.	=54.	=54.	=54.
2D\]	0r	1E	0r
2C#i/	.	.	.
[1D	.	2r	.
.	.	[2d\	.
=55	=55	=55	=55
1D]	0r	2d\]	0r
.	.	4c\	.
.	.	4B\	.
2r	.	2c\	.
[2G\	.	2d\	.
=56.	=56.	=56.	=56.
2G\]	0r	2e\	0r
4F\	.	1f	.
4E\	.	.	.
2F\	.	.	.
2G\	.	4e\	.
.	.	4d\	.
=57	=57	=57	=57
2A\	0r	2c\	0r
2.B-i\	.	2.d\	.
4A\	.	4c\	.
4G\	.	[2e\	.
4F\	.	.	.
=58.	=58.	=58.	=58.
4G\	0r	2e\]	0r
4F\	.	.	.
4E\	.	1d	.
4D\	.	.	.
1E	.	.	.
.	.	2c#i\	.
=59	=59	=59	=59
0D	0A	0d	1r
.	.	.	1f
=60.	=60.	=60.	=60.
1r	1A	1r	1f
1D	1A	1d	1f
=61	=61	=61	=61
1.E	1G	2B\	1g
.	.	2B\	.
.	1G	2.c\	[1g
4D\	.	.	.
4C/	.	4d\	.
=62.	=62.	=62.	=62.
0C	1.c	2e\	2g/]
.	.	1e	4f/
.	.	.	4e/
.	.	.	1e
.	4B\	4d\	.
.	4A/	4c\	.
=63	=63	=63	=63
1C	0G	[0c	1r
[1C	.	.	1e
=64.	=64.	=64.	=64.
2C/]	1r	1c]	1e
2BB/	.	.	.
2AA/	1G	1c	1e
2GG/	.	.	.
=65	=65	=65	=65
[0FF	1A	[0c	1f
.	1A	.	[1f
=66.	=66.	=66.	=66.
0FF]	1A	0c]	1f]
.	1A	.	1f
=67	=67	=67	=67
0r	2.c\	0r	2.a/
.	4B\	.	4g/
.	4B\	.	4g/
.	4A/	.	4f/
.	2B\	.	[2g/
=68.	=68.	=68.	=68.
0r	4A/	0r	2g/]
.	4G/	.	.
.	1c	.	4f/
.	.	.	4e/
.	.	.	1d
.	2B\	.	.
=69	=69	=69	=69
0r	0c	0r	2c/
.	.	.	2a/
.	.	.	2a/
.	.	.	2g/
=70.	=70.	=70.	=70.
0r	2r	0r	2a/
.	2c\	.	4g/
.	.	.	4f/
.	2c\	.	4e/
.	.	.	4d/
.	2B\	.	[2g/
=71	=71	=71	=71
0r	2c\	0r	2g/]
.	4B\	.	1f
.	4A/	.	.
.	1G	.	.
.	.	.	2e/
=72.	=72.	=72.	=72.
0F	1F	0c	1f
.	1A	.	1f
=73	=73	=73	=73
1F	1A	1c	2f/
.	.	.	2f/
1F	1A	1c	1a
=74.	=74.	=74.	=74.
1D	1A	1.d	2a/
.	.	.	1f
1F	1A	.	.
.	.	2c\	4e/
.	.	.	4d/
=75	=75	=75	=75
0C	0G	1c	1e
.	.	2r	2r
.	.	[2c\	[2e/
=76.	=76.	=76.	=76.
1r	1r	4c\]	4e/]
.	.	4d\	4f/
.	.	2e\	2g/
1C	1G	2c\	2e/
.	.	[2e\	[2g/
=77	=77	=77	=77
1C	2G/	4e\]	2g/]
.	.	4d\	.
.	1A	1c	4f/
.	.	.	4e/
1D	.	.	1f
.	2F/	2B\	.
=78.	=78.	=78.	=78.
0C	2G/	1c	[0e
.	2A/	.	.
.	2G/	[1c	.
.	[2A/	.	.
=79	=79	=79	=79
2AA/	2A/]	2c\]	0e]
2BB/	4G/	4B\	.
.	4F/	4A/	.
1C	2E/	2G/	.
.	2A/	2c\	.
=80.	=80.	=80.	=80.
1r	2G/	2B\	1r
.	2F/	2A/	.
1C	1G	[1c	1e
=81	=81	=81	=81
1FF	1F	1c]	1f
1FF	1A	2.c\	1f
.	.	4B\	.
=82.	=82.	=82.	=82.
1.FF	1A	2A/	1f
.	.	2G/	.
.	1A	2F/	[1f
4GG/	.	2E/	.
4AA/	.	.	.
=83	=83	=83	=83
1BB-	1F	1D	2f/]
.	.	.	4e/
.	.	.	4d/
1AA	[1A	2E/	1c
.	.	[2F/	.
=84.	=84.	=84.	=84.
0BB-i	2A/]	4F/]	0d
.	.	4E/	.
.	4G/	4D/	.
.	4F/	4C/	.
.	1G	1D	.
=85	=85	=85	=85
[0AA	2.A/	1E	[0c
.	4G/	.	.
.	2E/	[1A	.
.	[2F/	.	.
=86.	=86.	=86.	=86.
0AA]	2F/]	0A]	0c]
.	4E/	.	.
.	4D/	.	.
.	1E	.	.
=87	=87	=87	=87
2r	1D	1F	2r
2D\	.	.	2f/
2BB/	1r	1G	2d/
2C/	.	.	2e/
=88.	=88.	=88.	=88.
1.D	0r	2r	2.f/
.	.	2A/	.
.	.	.	4g/
.	.	2F/	2a/
4C/	.	2G/	2b\
4BB/	.	.	.
=89	=89	=89	=89
2AA/	2r	2A/	2.cc\
2A\	2A/	1c	.
.	.	.	4b\
2F\	2A/	.	4a/
.	.	.	4g/
2G\	2G/	2B\	[2b\
=90.	=90.	=90.	=90.
1A	1c	2c\	2b\]
.	.	2A/	2.a/
1E	1B	1e	.
.	.	.	4g#i/
.	.	.	2g#i/
=91	=91	=91	=91
2r	2A/	2r	2a/
2A\	2D/	2d\	4f/
.	.	.	4e/
2F\	2D/	2B\	4d/
.	.	.	4c/
2G\	2C/	[2c\	[2e/
=92.	=92.	=92.	=92.
1A	1F	4c\]	2e/]
.	.	4B\	.
.	.	4A/	2.d/
.	.	4G/	.
1AA	1E	1A	.
.	.	.	4c#i/
.	.	.	2c#i/
=93	=93	=93	=93
0Dl	0Dl	0Al	0dl
!!LO:LB:i:g=z
=94||	=94||	=94||	=94||
*>B	*>B	*>B	*>B
*clefF4	*clefGv2	*clefGv2	*clefG2
*k[]	*k[]	*k[]	*k[]
*M2/1	*M2/1	*M2/1	*M2/1
*met(C2)	*met(C2)	*met(C2)	*met(C2)
!!section: Crucifixus
!!!OMD: Crucifixus
1.D	0r	0r	0r
2D\	.	.	.
=95.	=95.	=95.	=95.
1F	1.A	0r	0r
1D	.	.	.
.	2A/	.	.
=96	=96	=96	=96
1E	1c	0r	0r
1F	1A	.	.
=97.	=97.	=97.	=97.
2.G\	1B	0r	0r
4F\	.	.	.
4E\	1c	.	.
4D\	.	.	.
[2F\	.	.	.
=98	=98	=98	=98
2F\]	2.d\	0r	0r
4E\	.	.	.
4D\	4c\	.	.
2.E\	4B\	.	.
.	4A/	.	.
.	[2c\	.	.
4F\	.	.	.
=99.	=99.	=99.	=99.
2G\	2c\]	0r	0r
1A	4B\	.	.
.	4A/	.	.
.	1B	.	.
2G#i\	.	.	.
=100	=100	=100	=100
1A	0A	1c	1e
1AA	.	[1c	2.e/
.	.	.	4f/
=101.	=101.	=101.	=101.
0r	0r	2c\]	2g/
.	.	2F/	1a
.	.	2.c\	.
.	.	.	2g/
.	.	4B\	.
=102	=102	=102	=102
0r	0r	2c\	2e/
.	.	1d	2.f/
.	.	.	4e/
.	.	[2c\	[2e/
=103.	=103.	=103.	=103.
0r	1r	4c\]	2e/]
.	.	4B\	.
.	.	2B\	2d/
.	[1A	1c	1e
=104	=104	=104	=104
1AA	1A]	1c	1e
1AA	1A	1c	1e
=105.	=105.	=105.	=105.
0GG	0B	0d	1.g
.	.	.	4f/
.	.	.	4e/
=106	=106	=106	=106
1AA	1A	1.c	2f/
.	.	.	1e
1C	[1G	.	.
.	.	4B\	4d/
.	.	4A/	4c/
=107.	=107.	=107.	=107.
1GG	2G/]	2B\	4d/
.	.	.	4c/
.	2F/	2.d\	4d/
.	.	.	4e/
2D\	2D/	.	2f/
.	.	4c\	.
2C/	2E/	[2A/	[2e/
=108	=108	=108	=108
1D	2.F/	2A/]	2e/]
.	.	2A/	1d
.	4G/	.	.
1AA	1E	2.A/	.
.	.	.	2c#i/
.	.	8G/L	.
.	.	8F/J	.
=109.	=109.	=109.	=109.
1r	0D	2B-i\	0d
.	.	2.A/	.
1D	.	.	.
.	.	4G/	.
.	.	[2F/	.
=110	=110	=110	=110
1D	1r	2F/]	0r
.	.	4E/	.
.	.	4D/	.
2C/	[1A	2E/	.
[2D\	.	2F/	.
=111.	=111.	=111.	=111.
4D\]	1A]	0D	0r
4E\	.	.	.
1F	.	.	.
.	1A	.	.
4E\	.	.	.
4D\	.	.	.
=112	=112	=112	=112
2E\	2G/	0r	0r
2AA/	2.A/	.	.
1AA	.	.	.
.	4B\	.	.
.	[2c\	.	.
=113.	=113.	=113.	=113.
2A\	2c\]	0r	0r
1A	4B\	.	.
.	4A/	.	.
.	1B	.	.
2G\	.	.	.
=114	=114	=114	=114
2F\	1A	0r	0r
4E\	.	.	.
4D\	.	.	.
2E\	1r	.	.
2F\	.	.	.
=115.	=115.	=115.	=115.
1D	2d\	0r	0r
.	1d	.	.
1F	.	.	.
.	2c\	.	.
=116	=116	=116	=116
1G	2B\	0r	0r
.	4A/	.	.
.	4G/	.	.
2F\	2A/	.	.
[2G\	2B\	.	.
=117.	=117.	=117.	=117.
2G\]	1G	0r	0r
4F\	.	.	.
4E\	.	.	.
1D	1B	.	.
=118	=118	=118	=118
1C	1c	0r	0r
2r	2B\	.	.
2C/	[2c\	.	.
=119.	=119.	=119.	=119.
2E\	2c\]	0r	0r
2F\	4B\	.	.
.	4A/	.	.
2.G\	4G/	.	.
.	4A/	.	.
.	4B\	.	.
4E\	4c\	.	.
=120	=120	=120	=120
4F\	2d\	0r	0r
4E\	.	.	.
4D\	1c	.	.
4C/	.	.	.
1D	.	.	.
.	2B\	.	.
=121.	=121.	=121.	=121.
0C	0c	1.G	0r
.	.	2G/	.
=122	=122	=122	=122
0r	0r	1A	1r
.	.	1B	[1g
=123.	=123.	=123.	=123.
0r	0r	0c	2g/]
.	.	.	2g/
.	.	.	1a
=124	=124	=124	=124
0r	0r	1d	1b
.	.	2.c\	[1cc
.	.	4d\	.
=125.	=125.	=125.	=125.
0r	0r	2e\	2cc\]
.	.	1f	2cc\
.	.	.	1cc
.	.	[2e\	.
=126	=126	=126	=126
0r	0r	2e\]	2.g/
.	.	4d\	.
.	.	4c\	4a/
.	.	2d\	2b\
.	.	2e\	[2cc\
=127.	=127.	=127.	=127.
0r	0r	2A/	2cc\]
.	.	1d	1b
.	.	4c\	4a/
.	.	4B\	4g/
=128	=128	=128	=128
0r	0r	2c\	2a/
.	.	2.d\	2b\
.	.	.	2e/
.	.	4c\	.
.	.	4B\	[2a/
.	.	4A/	.
=129.	=129.	=129.	=129.
1r	0r	1B	4a/]
.	.	.	4g#i/
.	.	.	2g#i/
2.AA/	.	1A	1a
4BB/	.	.	.
=130	=130	=130	=130
2C/	2.E/	0r	0r
2D\	.	.	.
.	4F/	.	.
2E\	2G/	.	.
2F\	2A/	.	.
=131.	=131.	=131.	=131.
1.G	2B\	0r	0r
.	2c\	.	.
.	[1d	.	.
2G\	.	.	.
=132	=132	=132	=132
2F\	2d\]	0r	0r
2F\	2d\	.	.
1E	2c\	.	.
.	2c\	.	.
=133.	=133.	=133.	=133.
2r	1B	0r	0r
2E\	.	.	.
[1G	2r	.	.
.	2B\	.	.
=134	=134	=134	=134
2G\]	1.d	0r	0r
2G\	.	.	.
2G\	.	.	.
2G\	2d\	.	.
=135.	=135.	=135.	=135.
2F\	2d\	0r	0r
4E\	2d\	.	.
4D\	.	.	.
2E\	2c\	.	.
[2A\	4B\	.	.
.	4A/	.	.
=136	=136	=136	=136
2A\]	2B\	0r	0r
2G#i\	2B\	.	.
2A\	2A/	.	.
[2E\	[2c\	.	.
=137.	=137.	=137.	=137.
4E\]	4c\]	0r	0r
4D\	4B\	.	.
2.F\	2.d\	.	.
4E\	4c\	.	.
4D\	4B\	.	.
4C/	4A/	.	.
=138	=138	=138	=138
4D\	2B\	0r	0r
4C/	.	.	.
4BB/	1A	.	.
4AA/	.	.	.
1BB	.	.	.
.	2G#i/	.	.
=139.	=139.	=139.	=139.
1AA	[0A	0c	1r
1AA	.	.	1e
=140	=140	=140	=140
1AA	0A_	1c	1e
1AA	.	1c	1e
=141.	=141.	=141.	=141.
2.AA/	0A_	0c	2a/
.	.	.	4g/
4BB/	.	.	4f/
2C/	.	.	2e/
[2FF/	.	.	[2f/
=142	=142	=142	=142
2FF/]	0A_	2.c\	2f/]
2.F\	.	.	4e/
.	.	4B\	4d/
.	.	4A/	2c/
4E\	.	4G/	.
4D\	.	[2F/	[2f/
4C/	.	.	.
=143.	=143.	=143.	=143.
2D\	0A_	4F/]	4f/]
.	.	4G/	4e/
4C/	.	1A	4e/
4BB/	.	.	4d/
1AA	.	.	2f/
.	.	4G/	[2e/
.	.	4F/	.
=144	=144	=144	=144
2C/	0A]	4G/	2e/]
.	.	4F/	.
2D\	.	4E/	2.d/
.	.	4D/	.
1AA	.	1E	.
.	.	.	4c#i/
.	.	.	2c#i/
=145.	=145.	=145.	=145.
[0D	0r	1D	0d
.	.	[1d	.
=146	=146	=146	=146
0D_	0r	2d\]	1r
.	.	2d\	.
.	.	2d\	[1a
.	.	2d\	.
=147.	=147.	=147.	=147.
0D]	0r	1.d	2a/]
.	.	.	2a/
.	.	.	2a/
.	.	4c\	2a/
.	.	4B\	.
=148	=148	=148	=148
0r	0r	2A/	0a
.	.	2d\	.
.	.	2d\	.
.	.	[2c\	.
=149.	=149.	=149.	=149.
0r	0r	4c\]	1.a
.	.	4B\	.
.	.	4A/	.
.	.	4G/	.
.	.	1F	.
.	.	.	4g/
.	.	.	4f/
=150	=150	=150	=150
0r	0r	1.c	2a/
.	.	.	2.g/
.	.	.	4f/
.	.	2c\	4e/
.	.	.	4d/
=151.	=151.	=151.	=151.
0r	0r	2.c\	2c/
.	.	.	4e/
.	.	4B\	4f/
.	.	4B\	4g/
.	.	4A/	4a/
.	.	[2c\	[2g/
=152	=152	=152	=152
0r	0r	2c\]	2g/]
.	.	4B\	2.f/
.	.	4A/	.
.	.	1G	.
.	.	.	4e/
.	.	.	2e/
=153.	=153.	=153.	=153.
1.D	0A	0F	0f
4C/	.	.	.
4BB/	.	.	.
=154	=154	=154	=154
2AA/	1A	0r	0r
1D	.	.	.
.	1A	.	.
[2C/	.	.	.
=155.	=155.	=155.	=155.
4C/]	2A/	0r	0r
4BB/	.	.	.
4AA/	1A	.	.
4GG/	.	.	.
1FF	.	.	.
.	4G/	.	.
.	4F/	.	.
=156	=156	=156	=156
1.C	2A/	0r	0r
.	2.G/	.	.
.	4F/	.	.
2C/	4E/	.	.
.	4D/	.	.
=157.	=157.	=157.	=157.
2.C/	2C/	0r	0r
.	4E/	.	.
4BB/	4F/	.	.
4BB/	4G/	.	.
4AA/	4A/	.	.
2C/	[2G/	.	.
=158	=158	=158	=158
2AA/	2G/]	0r	0r
2BB-i/	2.F/	.	.
1GG	.	.	.
.	4E/	.	.
.	2E/	.	.
=159.	=159.	=159.	=159.
[0FF	[0F	0c	0f
=160	=160	=160	=160
0FF]	0F]	1c	1f
.	.	1c	1f
=161.	=161.	=161.	=161.
0r	0r	1c	1e
.	.	1d	1f
=162	=162	=162	=162
0r	0r	1B	1g
.	.	1B	1g
=163.	=163.	=163.	=163.
1.F	1r	0A	0a
.	[1c	.	.
2F\	.	.	.
=164	=164	=164	=164
1F	2c\]	1.f	1.a
.	2c\	.	.
1F	1c	.	.
.	.	2f\	2a/
=165.	=165.	=165.	=165.
0F	1c	2f\	2a/
.	.	2f\	2a/
.	1c	1f	1a
=166	=166	=166	=166
0C	0c	1e	1g
.	.	2r	2r
.	.	2e\	2g/
=167.	=167.	=167.	=167.
2r	2r	4e\	2g/
.	.	4d\	.
2C/	2G/	4c\	4g/
.	.	4B\	4f/
2C/	2G/	2c\	4e/
.	.	.	4d/
2D\	2F/	2A/	2f/
=168	=168	=168	=168
2D\	2D/	2B\	2f/
2C/	2E/	2c\	2.e/
1D	1F	1A	.
.	.	.	4d/
.	.	.	2d/
=169.	=169.	=169.	=169.
1AA	1E	0A	1e
[1FF	[1F	.	[1a
=170	=170	=170	=170
2FF/]	2F/]	1.c	2a/]
2FF/	2F/	.	2a/
2FF/	2F/	.	2a/
2FF/	2F/	2c\	2a/
=171.	=171.	=171.	=171.
2.C/	[0E	2.c\	2g/
.	.	.	4a/
4BB/	.	4d\	4b\
2AA/	.	4e\	2cc\
.	.	4f\	.
2GG/	.	[2e\	[2b\
=172	=172	=172	=172
1AA	0E]	4e\]	2b\]
.	.	4d\	.
.	.	2c\	2.a/
1E	.	1B	.
.	.	.	4g#i/
.	.	.	2g#i/
=173.	=173.	=173.	=173.
[0AA	2C/	1A	[0a
.	4D/	.	.
.	4E/	.	.
.	2F/	2r	.
.	[2E/	2A/	.
=174	=174	=174	=174
0AA]	2E/]	2c\	0a]
.	2.D/	4d\	.
.	.	4e\	.
.	.	2f\	.
.	4C/	.	.
.	2C/	[2e\	.
=175.	=175.	=175.	=175.
1r	1D	2e\]	1r
.	.	2.d\	.
1AA	1E	.	1a
.	.	4c#i\	.
.	.	2c#i\	.
=176	=176	=176	=176
1BB-	[0D	1d	1f
[1BB-i	.	[1d	1f
=177.	=177.	=177.	=177.
2BB-/]	0D]	2d\]	1g
2AA/	.	2d\	.
1GG	.	2B-i\	1g
.	.	2B-i\	.
=178	=178	=178	=178
1FF	0r	1c	1a
1F	.	1c	2a/
.	.	.	[2f/
=179.	=179.	=179.	=179.
2F\	1A	2c\	2f/]
2F\	.	2c\	4e/
.	.	.	4d/
[1C	2A/	1c	1e
.	2A/	.	.
=180	=180	=180	=180
1C]	1G	2r	2r
.	.	2c\	2e/
2r	2r	4c\	2e/
.	.	4A/	.
2C/	2G/	4c\	2e/
.	.	4d\	.
=181.	=181.	=181.	=181.
2C/	2.E/	2e\	1g
2C/	.	2e\	.
.	4F/	.	.
2GG/	2G/	1d	1g
2GG/	2G/	.	.
=182	=182	=182	=182
2D\	1A	2.d\	2f/
4C/	.	.	4e/
4BB/	.	8c\L	4d/
.	.	8d\J	.
2AA/	2A/	2e\	4c/
.	.	.	4B/
2AA/	2E/	2A/	[2e/
=183.	=183.	=183.	=183.
2GG/	4G/	2B\	2e/]
.	4F/	.	.
2BB/	4E/	2G/	1d
.	4D/	.	.
1AA	1E	2.A/	.
.	.	.	2c#i/
.	.	8G/L	.
.	.	8A/J	.
=184	=184	=184	=184
0r	0D	2B\	0d
.	.	2A/	.
.	.	2B\	.
.	.	[2A/	.
=185.	=185.	=185.	=185.
1r	1r	2A/]	1r
.	.	1G	.
1D	1D	.	1d
.	.	2F#i/	.
=186	=186	=186	=186
1.GG	1.D	1G	1.B
.	.	2r	.
2GG/	2D/	2G/	2B/
=187.	=187.	=187.	=187.
0GG	2D/	2G/	1B
.	1E	2G/	.
.	.	1G	1B
.	2D/	.	.
=188	=188	=188	=188
2r	1D	2F/	2.d/
2GG/	.	2G/	.
.	.	.	4c/
2FF/	1D	2A/	2A/
2GG/	.	[2B\	[2d/
=189.	=189.	=189.	=189.
2.BB-i/	1D	4B-i\	2d/]
.	.	4A/	.
.	.	1G	4c/
4C/	.	.	4B/
1D	2r	.	2A/
.	2D/	2F#i/	4B/
.	.	.	4A/
=190	=190	=190	=190
[0GG	2D/	0G	0B
.	2E/	.	.
.	2D/	.	.
.	[2G/	.	.
=191.	=191.	=191.	=191.
0GG]	2G/]	1r	2r
.	4F/	.	2d/
.	4E/	.	.
.	1D	2r	2d/
.	.	2d\	2d/
=192	=192	=192	=192
2r	0F	2d\	2A/
2D\	.	2d\	2.d/
2D\	.	2A/	.
.	.	.	4c/
2D\	.	[2d\	2B/
=193.	=193.	=193.	=193.
2D\	1.F	2d\]	2A/
2D\	.	4c\	1d
.	.	4B\	.
2D\	.	4A/	.
.	.	4B\	.
[2C/	[2E/	4c\	2e/
.	.	4B\	.
=194	=194	=194	=194
2C/]	2E/]	4A/	2f/
.	.	4G/	.
2BB/	2.D/	1G	2g/
1AA	.	.	1a
.	4C/	.	.
.	2C/	2F#i/	.
=195.	=195.	=195.	=195.
1GG	1D	0G	2.b\
.	.	.	4g/
1C	2r	.	1g
.	2E/	.	.
=196	=196	=196	=196
1C	1G	0r	2r
.	.	.	2.g/
1BB	1G	.	.
.	.	.	4a/
.	.	.	2b\
=197.	=197.	=197.	=197.
[0AA	1.A	1r	1cc
.	.	2r	2cc\
.	[2F/	2A/	[2a/
=198	=198	=198	=198
0AA]	2F/]	1c	2a/]
.	4E/	.	4g/
.	4D/	.	4f/
.	1E	1c	1e
=199.	=199.	=199.	=199.
0r	1D	2d\	1r
.	.	1f	.
.	1r	.	2r
.	.	[2e\	2e/
=200	=200	=200	=200
0r	0r	2e\]	1g
.	.	4d\	.
.	.	4c\	.
.	.	1B	1g
=201.	=201.	=201.	=201.
0r	0r	2A/	2a/
.	.	2.e\	1cc
.	.	4c\	.
.	.	[2d\	2b\
=202	=202	=202	=202
0r	0r	4d\]	2b\
.	.	4A/	.
.	.	2c\	2.a/
.	.	1B	.
.	.	.	4g#i/
.	.	.	2g#i/
=203.	=203.	=203.	=203.
1r	1r	1A	1a
1D	1A	1d	1f
=204	=204	=204	=204
1C	1c	1e	2g/
.	.	.	1g
[1C	2c\	2e\	.
.	[2c\	[2A/	2f/
=205.	=205.	=205.	=205.
1C]	2c\]	2A/]	2e/
.	2B\	4G/	2d/
.	.	4F/	.
1C	2A/	2E/	2c/
.	2G/	2c\	2e/
=206	=206	=206	=206
1D	1F	2A/	4d/
.	.	.	4c/
.	.	2B\	1f
1C	1G	2.c\	.
.	.	.	2e/
.	.	4B\	.
=207.	=207.	=207.	=207.
2FF/	[0A	4c\	2f/
.	.	4d\	.
2C/	.	1e	2e/
1D	.	.	2f/
.	.	[2d\	4e/
.	.	.	4d/
=208	=208	=208	=208
1AA	0A]	4d\]	1e
.	.	4c#i\	.
.	.	2c#i\	.
2D\	.	2d\	2d/
[2F\	.	4cni\	[2a/
.	.	4B\	.
=209.	=209.	=209.	=209.
4F\]	2r	1A	4a/]
4E\	.	.	4g/
2D\	1A	.	2f/
2C/	.	2r	2e/
2D\	2F/	[2d\	2f/
=210	=210	=210	=210
1GG	2.G/	4d\]	2d/
.	.	4c\	.
.	.	4B\	2.g/
.	4F/	4A/	.
1BB-i	4E/	2G/	.
.	4D/	.	4f/
.	[2F/	4A/	4e/
.	.	4G/	4d/
=211.	=211.	=211.	=211.
0AA	2F/]	1A	2c/
.	4E/	.	1d
.	4D/	.	.
.	1E	[1Al	.
.	.	.	2c#i/
=212	=212	=212	=212
1r	[0Dl	0A_	[0dl
1D	.	.	.
=213.	=213.	=213.	=213.
0Dl	0D]	0A]	0d]
==	==	==	==
*-	*-	*-	*-
!!!RDF**kern: l=long note in original notation
!!!RDF**kern: i=editorial accidental
!!!ENC:	Chris Gage 06-11-2013
!!!END:	2013/08/05/
!!!EED:	Jesse Rodin
!!!EEV:	2013/08/05/
!!!ONB:	Translated from MusicXML and edited on 2013/08/05/ by Craig Sapp
!!muse2ps: T^@{OPR}^u^@{ONM}{. }@{OTL}^C^@{COM}^i2I150v85,85,85,150Q16
